X: 376
T:Une musque de Buscaya
N: Derived from Jos2835-Une_musque_de_Buscaya.krn
C: Josquin des Prez
%%abc-version 2.0
%%abcx-abcm2ps-target-version 5.9.1 (29 Sep 2008)
%%abc-creator hum2abc beta
%%abcx-conversion-date 2019/02/12 16:15:55
%%abc-edited-by Jesse Rodin
%%abc-edited-by Jesse Rodin; Victoria Chang 2011/09/10
%%abcx-initial-encoding-date 2011/08/18/
%%humdrum-veritas 3489623402
%%humdrum-veritas-data 514570722
%%linebreak <none>
%%barnumbers 0
L: 1/4
M: 2/1
Q: 1/2=120
%%staves [1 2 3 4]
V: 1 clef=treble
V: 2 clef=treble-8
V: 3 clef=treble-8
V: 4 clef=bass
K: F
[V:1] z8 | 
[V:2] z4c4- | 
[V:3] f6ed | 
[V:4] F,6G,2 | 
[V:1] F6GA | 
[V:2] c2def4- | 
[V:3] c4d4 | 
[V:4] A,4D,2B,2- | 
[V:1] B6A2- | 
[V:2] f2e3dd2- | 
[V:3] B3AG2F2 | 
[V:4] B,A,G,3F,D,2 | 
[V:1] AGG4^F2 | 
[V:2] d2^c2d4 | 
[V:3] G4A4 | 
[V:4] E,4D,4 | 
[V:1] G4G4 | 
[V:2] d4e4- | 
[V:3] G4z2c2- | 
[V:4] z2G,4E,2 | 
[V:1] A6F2 | 
[V:2] e2c2f4 | 
[V:3] c2A2d4 | 
[V:4] A,4z2D,2 | 
[V:1] B4A2G2- | 
[V:2] e2d3cc2- | 
[V:3] z2G2c4 | 
[V:4] G,4z2C,2 | 
[V:1] GFF4E2 | 
[V:2] c2=B2c4 | 
[V:3] z2F2G4 | 
[V:4] D,4C,4 | 
[V:1] F4z4 | 
[V:2] z4c4- | 
[V:3] F2f4ed | 
[V:4] F,6G,2 | 
[V:1] F6GA | 
[V:2] c2def4- | 
[V:3] c4d4 | 
[V:4] A,4D,2B,2- | 
[V:1] B6A2- | 
[V:2] f2e3dd2- | 
[V:3] B3AG2F2 | 
[V:4] B,A,G,3F,D,2 | 
[V:1] AGG4^F2 | 
[V:2] d2^c2d4 | 
[V:3] G4A4 | 
[V:4] E,4D,4 | 
[V:1] G4G4 | 
[V:2] d4e4- | 
[V:3] G4z2c2- | 
[V:4] z2G,4E,2 | 
[V:1] A6F2 | 
[V:2] e2c2f4 | 
[V:3] c2A2d4 | 
[V:4] A,4z2D,2 | 
[V:1] B4A2G2- | 
[V:2] e2d3cc2- | 
[V:3] z2G2c4 | 
[V:4] G,4z2C,2 | 
[V:1] GFF4E2 | 
[V:2] c2=B2c4 | 
[V:3] z2F2G4 | 
[V:4] D,4C,4 | 
[V:1] F4z4 | 
[V:2] z4c4- | 
[V:3] F4z4 | 
[V:4] F,8 | 
[V:1] F6GA | 
[V:2] c2def3e | 
[V:3] A6Bc | 
[V:4] F,3E,D,3C, | 
[V:1] B3AB2c2- | 
[V:2] f2g3ff2- | 
[V:3] d4B2F2 | 
[V:4] B,,2B,4A,2 | 
[V:1] cBB4A2 | 
[V:2] f2e2f4 | 
[V:3] B4c4 | 
[V:4] G,4F,4 | 
[V:1] B4z4 | 
[V:2] z4f4- | 
[V:3] B6c2 | 
[V:4] B,,8 | 
[V:1] B6AB | 
[V:2] f2efg4 | 
[V:3] d8 | 
[V:4] B,4G,4 | 
[V:1] c4B2A2- | 
[V:2] f2e3dd2- | 
[V:3] c4d4 | 
[V:4] A,4z2D,2 | 
[V:1] AGG4^F2 | 
[V:2] d2^c2d4 | 
[V:3] z2G2A4 | 
[V:4] E,4D,4 | 
[V:1] G4G4 | 
[V:2] d4e4- | 
[V:3] G4z2c2- | 
[V:4] z2G,4E,2 | 
[V:1] A6F2 | 
[V:2] e2c2f4 | 
[V:3] c2A2d4 | 
[V:4] A,4z2D,2 | 
[V:1] B4A2G2- | 
[V:2] e2d3cc2- | 
[V:3] z2G2c4 | 
[V:4] G,4z2C,2 | 
[V:1] GFF4E2 | 
[V:2] c2=B2c4 | 
[V:3] z2F2G4 | 
[V:4] D,4C,4 | 
[V:1] F4z4 | 
[V:2] z8 | 
[V:3] F6G2 | 
[V:4] F,3G,A,3B, | 
[V:1] z8 | 
[V:2] z4e4- | 
[V:3] A2B2c4- | 
[V:4] C6A,2 | 
[V:1] A6Bc | 
[V:2] e2fga4- | 
[V:3] c2def3e | 
[V:4] A,3F,F,4 | 
[V:1] d6c2- | 
[V:2] a2g3ff2- | 
[V:3] d3cB2F2 | 
[V:4] z2B,4A,2 | 
[V:1] cBB4A2 | 
[V:2] f2e2f4- | 
[V:3] B4c4 | 
[V:4] G,4F,4 | 
[V:1] B8 |]  
[V:2] f8 |]  
[V:3] B8 |]  
[V:4] B,,8 |]  



